!!!OTL: Der Bettler.
!!!ARE: Europa, Mitteleuropa, Deutschland
!!!SCT: A0046
!!!TXL: @@GMH
!!!YEM: Copyright 1995, estate of Helmut Schaffrath.
**kern	**text
*M4/2	*
*met(c|)	*
*clefC3	*
*k[b-]	*
*F:ion	*
=1	=1
!LO:TX:a:t=jon.	!
1ryy	.
2ryy	.
{2F	Der
=2	=2
1F	reich
1A	man
=3	=3
1c	war
1f	ge-
=4	=4
1e	-rit-
1d	ten
=5	=5
1c	auß,
2r}	.
{2c	es
=6	=6
*lig	*
4d	kam-
4c	.
4d	.
4e	.
*Xlig	*
2f	.
2f	-ein
=7	=7
1e	bet-
1d	-ler
=8	=8
1.c	für
2B-	ſein
=9	=9
0A	hauß,
=10	=10
1r}	.
{1F	er
=11	=11
1.A	bat
2G	die
=12	=12
2A	fra-
2B-	-wen
2c/	vm
2c/	ein
=13	=13
1F	gab,
1r}	.
=14	=14
{1A	das
1.A	ſie
=15	=15
.	.
2G	jm
2A	geb
2F	von
=16	=16
2E	jh-
2F	-rer
2G	hab,
2B-	das
=17	=17
1A	hey-
1G	-a
=18	=18
0F/ll}	ho!
==	==
!!!GTL: Balladen und Romanzen (erzählende Volkslieder)
!!!AGN: Romanze, Ballade, Lied
!! Melodie bei Forster V. 1556 No. 8.
!!!ONB: ESAC (Essen Associative Code) Database: ALTDEU
!!!AMT: simple quadruple
!!!AIN: vox
!!!EED: Helmut Schaffrath
!!!EEV: 1.0
!!!RDF**kern: l = terminal long
!!!AMD: Ionian
!!!URL-scan: https://rosdok.uni-rostock.de/mcrviewer/recordIdentifier/rosdok_ppn738218359/iview2/phys_0199.iview2?x=-425.8853427895981&y=2260.711111123557&scale=0.4823261117445838&rotation=0&layout=singlePageLayout&logicalDiv=log_0007
!!!ENC: Anna Maria Matuszewska
!!!EEV: 2024/19/02
*-	*-
